icon-themes/sifr_svg/cmd/sc_displaymasterbackground.svg

<svg viewBox="0 0 16 16" xmlns="http://www.w3.org/2000/svg"><path d="m1 1v14h14v-14zm2 2h10v10l-2-2-2 1-3-3-3 3zm7 1c-1.1 0-2 .9-2 2s.9 2 2 2 2-.9 2-2-.9-2-2-2z" fill="#555753"/></svg>

<svg xmlns="http://www.w3.org/2000/svg" viewBox="0 0 16 16">
  <path
     style="fill:#555753"
     d="M 1,1 V 15 H 15 V 1 Z M 3,3 H 13 V 13 L 11,11 9,12 6,9 3,12 Z m 7,1 C 8.9,4 8,4.9 8,6 8,7.1 8.9,8 10,8 11.1,8 12,7.1 12,6 12,4.9 11.1,4 10,4 Z"
     />
</svg>
